X: 100
T: Gei anmen xun xiage huilaohan
%%abc-version 2.0
%%abcx-abcm2ps-target-version 5.9.1 (29 Sep 2008)
%%abc-creator hum2abc beta
%%abcx-conversion-date 2013/10/02 07:52:29
%%abc-edited-by Helmut Schaffrath
%%humdrum-veritas 3910324713
%%humdrum-veritas-data 320744176
%%continueall 1
%%barnumbers 0
L: 1/8
M: 2/4
K: G
A G A B [I:setbarnb 1]| 
dA2G | 
A> G E G | 
D3A, | 
D> E G A | 
AG2E | 
G3E | 
D E D B, | 
A,4 |]  



